X:129
T:Donnybrook Fair
T:Joy of my Life
C:
C:
S:
L:1/8
R:Jig
M:6/8
K:G
G3 AGA | B2e dBA | B3 GAB | AGE EDE |
G3 AGA | B2e dBA | B3 GAB | AGF G3 :|
|: gfe fec | e3 dBA | B2e dBA | Bed e3 |
gfe fec | e3 dBA | B3 GAB | AGF G3 :|

